X: 1
T: Hora Agadati (Bm)
O: Israel
Z: 1998 by John Chambers <jc:trillian.mit.edu>
M: 2/4
L: 1/8
K: Bm
|: "Bm"{c}AB BA | BA d{f}d | AB BA | BA {f}d2 | AB BA | Bc de !coda!| "A"cd {e}c{B}A | "Bm"{f}Bc B2 :|
|: "Em"ze2 e | {b}ed e2 | e>f gf | e2 "D"d2 | "A"ea gf | "Em"{b}ed e2 | "D"fg f/e/d | "Em"e3z :|
!coda!|| fg f{e}d | z2 "Em"e"D"[fd] | "Em"ez3 |] x4  x4  x4  x4  x4  x4 |

%%sep 1 1 500

